X: 35
T:Jockie to the Fair, Bledington 2
M:6/8
L:1/8
A:Bledington
P:AAB(CB)2
K:G
P:A
d|G2A B2c|d2e d2c|BdG GFG |AcB A2A|
dcd efg|faf d2g|ede AB^c|d3   d2||
P:B
d|e2d e2d|cBc B2d|e2d e2d |cBc B2d|
e2f gfe|d2B cde|edc B2A |G2F E2D|
G2G GBd|e2e g2e|dBG Bcd |E2F G2A|Bcd BcA|G3 G2||
P:C
z|DEF G3 |A3  B3 |c3  e3  |e3  d3 |c3  Bd2|G3 GF2|
M:9/8
G2A c2B A2A|\
M:6/8
dcd efg|faf d2g|fed AB^c|d3  d2 ||

